X:1
T:recevez le Christ
T:Recevez le Christ
T:chant pour l'Eucharistie
%%score [ 1 2 3 4 ]
L:1/8
Q:1/4=80
M:4/4
K:E
V:1 treble nm="Soprano" snm="S."
V:2 treble nm="Alto" snm="A."
V:3 treble-8 nm="Tenor" snm="T."
V:4 bass nm="Bass" snm="B."
V:1
!mf! z"^Couplets" B | B3 G AG FE | E4 D4 | B2 AG AG FE | (D2 E2) F4 | E2 E2 F3 E/F/ | %6
w: 1.Voi-|ci le Fils ai- mé du|Pè- re,|don de Dieu pour sau- ver le|mon _ de.|De- vant nous il est|
w: 2.Jé-|sus, jus- qu'au bout tu nous|ai- mes,|tu prends la con- di- tion d'es-|cla _ ve.|roi des rois, Tu t'a-|
w: 3.Sei-|gneur; comme est grand ce mys-|tè- re.|Maî- tre com- ment te lais- ser|fai _ re?|En mon corps, en mon|
w: 4.Je|crois mon Dieu, en toi j'es-|pè- re.|La- ve mes pieds et tout mon|ê _ tre:|de Ton coeur fais jail-|
w: 5.Sei-|gneur tu m'ap- pelles à te|sui- vre.|Viens au se- cours de ma fai-|bles _ se.|En mon coeur, viens, é-|
 GA GE!mp! C2 C=B, |!p! C3 E E2 D2 | E4 z2 ||"^refrain"!p! EF | G3 G A4 | G3 A G2 F2 | %12
w: là, il se fait pro- che, Jé-|sus, l'A- gneau de|Dieu!|Re- ce-|vez le Christ|doux et hum- ble,|
w: bais- ses jus- qu'à ter- re pour|nous la- ver les|pieds.||||
w: â- me pé- che- res- se, Tu|viens pour de- meu-|rer.||||
w: lir en moi la sour- ce, l'eau|vi- ve de l'Es-|prit.||||
w: ta- blis ta de- meu- re, que|brû- le Ton A-|mour.||||
 G3!<(! G AG AB!<)! | F6!<(! FG!<)! | A3 A BB BF | G3 G AG FE | C3 G AG FE | E4 z4 |] %18
w: Dieu ca- ché en cette hos-|tie. Bien- heu-|reux dis- ci- ples du Sei-|gneur, re- po- sez sur son|coeur, ap- pre- nez tout de|Lui.|
w: ||||||
w: ||||||
w: ||||||
w: ||||||
V:2
!mf! z G | G3 E EE EC | (B,2 C2) B,4 | G2 FE EE CC | B,4 B,4 | C2 C2 D3 C/C/ | %6
 DF E^B,!mp! C2 C=B, |!p! A,3 C C2 B,2 | B,4 z2 ||!p! B,B, | E3 E E4 | E3 E E2 F2 | %12
 E3!<(! E EE EE!<)! | (E4 D2)!<(! DE!<)! | E3 E FF DF | E3 E EE CC | C3 E EE DC | B,4 z4 |] %18
V:3
!mf! z E | E3 E cB AA | (B2 A2) F4 | E2 cB cB AG | F4 F4 | G2 G2 B3 c/c/ | ^BB BG!mp! E2 EE | %7
w: 1.Voi-|ci le Fils ai- mé du|Pè _ re,|don de Dieu pour sau- ver le|mon- de.|De- vant nous il est|là, il se fait pro- che, Jé-|
w: 2.Jé-|sus, jus- qu'au bout tu nous|ai _ mes,|tu prends la con- di- tion d'es-|cla- ve.|roi des rois, Tu t'a-|bais- ses jus- qu'à ter- re pour|
w: 3.Sei-|gneur; comme est grand ce mys-|tè _ re.|Maî- tre com- ment te lais- ser|fai- re?|En mon corps, en mon|â- me pé- che- res- se, Tu|
w: 4.Je|crois mon Dieu, en Toi j'es-|pè _ re.|La- ve mes pieds et tout mon|ê- tre:|de Ton coeur fais jail-|lir en moi la sour- ce, l'eau|
w: 5.Sei-|gneur tu m'ap- pelles à te|sui _ vre.|Viens au se- cours de ma fai-|bles- se.|En mon coeur, viens, é-|ta- blis ta de- meu- re, que|
!p! F3 A A2 A2 | G4 z2 ||!p! GA | B3 B c4 | B3 c B2 B2 | G3!<(! G cB Ac!<)! | (c4 B2)!<(! BB!<)! | %14
w: sus, l'A- gneau de|Dieu!|re- ce-|vez le Christ|doux et hum- ble,|Dieu ca- ché en cette hos-|tie. _ Bien heu-|
w: nous la- ver les|pieds.||||||
w: viens pour de- meu-|rer.||||||
w: vi- ve de l'Es-|prit.||||||
w: brû- le Ton A-|mour.||||||
 A3 A FF FB | B3 B cB AG | A3 A cB AA | G4 z4 |] %18
w: reux dis- ci- ples du Sei-|gneur, re- po- sez sur son|coeur, ap- pre- nez tout de|Lui.|
w: ||||
w: ||||
w: ||||
w: ||||
V:4
!mf! z E,, | E,,3 E,, F,,F,, F,,F,, | (G,,2 A,,2) B,,4 | E,2 E,E, C,C, A,,A,, | (B,,2 C,2) D,4 | %5
 C,2 C,2 B,,2 (A,, A,,/)A,,/ | G,,G,, G,,G,,!mp! A,,2 A,,G,, |!p! F,,3 F,, B,,2 B,,2 | E,4 z2 || %9
!p! E,E, | E,3 E, E,4 | E,3 E, E,2 D,2 | C,3!<(! B,, A,,A,, F,,F,,!<)! | B,,6!<(! B,,B,,!<)! | %14
 C,3 C, D,D, B,,D, | E,3 D, C,C, C,C, | F,,3 F,, B,,B,, B,,B,, | E,4 z4 |] %18

